static/assets/images/tokens/dai-mono.svg

<svg width="256" height="256" viewBox="0 0 256 256" fill="none" xmlns="http://www.w3.org/2000/svg">
<path fill-rule="evenodd" clip-rule="evenodd" d="M256 128C256 57.3126 198.699 0 128 0C57.3126 0 0 57.3126 0 128C0 198.693 57.3126 256 128 256C198.699 256 256 198.699 256 128ZM65.7626 153.603C67.0413 153.603 67.0413 153.759 67.0413 154.802V199.039L67.0183 199.056V199.137H122.539C128.824 199.223 135.085 198.722 141.26 197.616C147.763 196.343 154.099 194.339 160.141 191.62C162.761 190.406 165.275 188.94 167.811 187.46C168.453 187.086 169.096 186.71 169.743 186.338C172.727 184.212 175.584 181.908 178.303 179.46C185.745 172.733 191.505 164.34 195.105 154.98C195.347 153.932 196.372 153.258 197.426 153.459H212.546C213.75 153.459 214.147 153.056 214.147 151.697V142.014C214.228 141.087 214.228 140.148 214.147 139.221C214.147 138.978 214.21 138.737 214.272 138.495C214.396 138.014 214.52 137.534 214.147 137.055H201.516C199.989 137.055 199.989 136.894 199.989 135.534C200.427 130.661 200.427 125.771 199.989 120.898C199.909 119.458 200.231 119.458 201.349 119.458H212.391C213.675 119.458 214.153 119.135 214.153 117.857V104.735C214.113 103.866 214.093 103.425 213.863 103.202C213.626 102.973 213.166 102.973 212.235 102.973H197.916C196.798 103.163 195.727 102.408 195.525 101.291C193.884 96.9994 191.793 92.8924 189.275 89.0505C186.741 85.2604 183.884 81.7007 180.716 78.4117C176.505 74.2068 171.776 70.5549 166.638 67.5309C158.891 63.0323 150.418 59.8816 141.599 58.2515C137.32 57.4623 132.994 56.9842 128.639 56.8114H68.6426C67.0413 56.8114 67.0413 57.134 67.0413 58.4127V101.533C67.0413 103.053 66.7187 103.053 65.5207 103.053H48.3211C47.0424 103.053 47.0424 103.289 47.0424 104.171V118.248C47.0424 119.527 47.4398 119.527 48.4018 119.527H65.7626C67.0413 119.527 67.0413 119.763 67.0413 120.725V135.765C67.0413 137.124 66.6381 137.124 65.6013 137.124H47.0424V152.325C47.0424 153.603 47.4398 153.603 48.4018 153.603H65.7626ZM181.355 137.038C182.392 137.038 182.882 137.038 182.957 135.678C183.354 130.73 183.354 125.754 182.957 120.8C182.957 119.838 182.479 119.441 181.436 119.441H84.6383C83.4402 119.441 83.1176 119.838 83.1176 120.961V135.2C83.1176 136.106 83.1176 136.565 83.3472 136.798C83.5835 137.038 84.063 137.038 85.0357 137.038H181.355ZM177.525 102.8C177.663 102.437 177.663 102.039 177.525 101.682C176.713 99.914 175.751 98.2263 174.633 96.6423C172.951 93.935 170.97 91.4409 168.712 89.2003C167.646 87.8466 166.414 86.6313 165.031 85.6002C158.108 79.7077 149.877 75.5374 141.029 73.4407C136.565 72.4385 132.003 71.9604 127.43 72.0007H84.4712C83.2732 72.0007 83.1119 72.4788 83.1119 73.5214V101.918C83.1119 103.117 83.1119 103.439 84.6325 103.439H176.949C176.949 103.439 177.75 103.278 177.911 102.8H177.525ZM177.525 153.678C176.166 153.529 174.795 153.529 173.435 153.678H84.7189C83.5208 153.678 83.1176 153.678 83.1176 155.28V183.043C83.1176 184.322 83.1176 184.644 84.7189 184.644H125.679C127.637 184.794 129.596 184.656 131.514 184.247C137.458 183.821 143.304 182.53 148.88 180.405C150.908 179.702 152.866 178.786 154.715 177.686H155.274C164.876 172.692 172.675 164.847 177.594 155.216C177.594 155.216 178.153 154.007 177.525 153.69V153.678Z" fill="black"/>
</svg>

<svg xmlns="http://www.w3.org/2000/svg" fill="none" viewBox="0 0 256 256"><path fill="#000" fill-rule="evenodd" d="M256 128C256 57.313 198.699 0 128 0 57.313 0 0 57.313 0 128c0 70.693 57.313 128 128 128 70.699 0 128-57.301 128-128M65.763 153.603c1.278 0 1.278.156 1.278 1.199v44.237l-.023.017v.081h55.521a98.5 98.5 0 0 0 18.721-1.521 86.5 86.5 0 0 0 18.881-5.996c2.62-1.214 5.134-2.68 7.67-4.16q.962-.562 1.932-1.122a97 97 0 0 0 8.56-6.878 64 64 0 0 0 16.802-24.48 2 2 0 0 1 2.321-1.521h15.12c1.204 0 1.601-.403 1.601-1.762v-9.683c.081-.927.081-1.866 0-2.793 0-.243.063-.484.125-.726.124-.481.248-.961-.125-1.44h-12.631c-1.527 0-1.527-.161-1.527-1.521a81.7 81.7 0 0 0 0-14.636c-.08-1.44.242-1.44 1.36-1.44h11.042c1.284 0 1.762-.323 1.762-1.601v-13.122c-.04-.869-.06-1.31-.29-1.533-.237-.229-.697-.229-1.628-.229h-14.319a2.084 2.084 0 0 1-2.391-1.682 64 64 0 0 0-6.25-12.24 77 77 0 0 0-8.559-10.64 70.6 70.6 0 0 0-14.078-10.88 78.2 78.2 0 0 0-25.039-9.28 91 91 0 0 0-12.96-1.44H68.643c-1.602 0-1.602.323-1.602 1.602v43.12c0 1.52-.322 1.52-1.52 1.52h-17.2c-1.279 0-1.279.236-1.279 1.118v14.077c0 1.279.398 1.279 1.36 1.279h17.36c1.28 0 1.28.236 1.28 1.198v15.04c0 1.359-.404 1.359-1.44 1.359h-18.56v15.201c0 1.278.398 1.278 1.36 1.278zm115.592-16.565c1.037 0 1.527 0 1.602-1.36a93 93 0 0 0 0-14.878c0-.962-.478-1.359-1.521-1.359H84.638c-1.198 0-1.52.397-1.52 1.52V135.2c0 .906 0 1.365.23 1.598.236.24.715.24 1.688.24zm-3.83-34.238a1.56 1.56 0 0 0 0-1.118 31.6 31.6 0 0 0-2.892-5.04 40.8 40.8 0 0 0-5.921-7.442 19.6 19.6 0 0 0-3.681-3.6 57.5 57.5 0 0 0-24.002-12.16A59.7 59.7 0 0 0 127.43 72H84.471c-1.198 0-1.36.479-1.36 1.521v28.397c0 1.199 0 1.521 1.521 1.521h92.317s.801-.161.962-.639zm0 50.878a18.8 18.8 0 0 0-4.09 0H84.719c-1.198 0-1.601 0-1.601 1.602v27.763c0 1.279 0 1.601 1.6 1.601h40.961a20.5 20.5 0 0 0 5.835-.397 61 61 0 0 0 17.366-3.842 31.8 31.8 0 0 0 5.835-2.719h.559a51.97 51.97 0 0 0 22.32-22.47s.559-1.209-.069-1.526z" clip-rule="evenodd"/></svg>
